openmetadata-ui/src/main/resources/ui/src/assets/svg/no-data-icon.svg

<svg width="32" height="32" viewBox="0 0 32 32" fill="none" xmlns="http://www.w3.org/2000/svg">
<g clip-path="url(#clip0_13827_30653)">
<g filter="url(#filter0_d_13827_30653)">
<path fill-rule="evenodd" clip-rule="evenodd" d="M27.4785 21.2088L21.6481 14.1578C21.3683 13.8259 20.9594 13.625 20.5288 13.625H7.99314C7.56278 13.625 7.15386 13.8259 6.8741 14.1578L1.04395 21.2088V24.8924H27.4787V21.2088H27.4785Z" fill="#9CA3AF"/>
<path fill-rule="evenodd" clip-rule="evenodd" d="M5.98357 4.52344H22.5385C22.797 4.52344 23.0449 4.62435 23.2278 4.80399C23.4106 4.98362 23.5133 5.22725 23.5133 5.48129V27.8337C23.5133 28.0877 23.4106 28.3313 23.2278 28.511C23.0449 28.6906 22.797 28.7915 22.5385 28.7915H5.98357C5.72504 28.7915 5.4771 28.6906 5.2943 28.511C5.11149 28.3313 5.00879 28.0877 5.00879 27.8337V5.48129C5.00879 5.22725 5.11149 4.98362 5.2943 4.80399C5.4771 4.62435 5.72504 4.52344 5.98357 4.52344V4.52344Z" fill="#DCE3EC"/>
<path fill-rule="evenodd" clip-rule="evenodd" d="M27.4249 29.6739C27.236 30.4093 26.5727 30.9575 25.7836 30.9575H2.73909C1.95 30.9575 1.28667 30.4091 1.09805 29.6739C1.06207 29.5338 1.0439 29.3898 1.04395 29.2453V21.2073H7.4575C8.16592 21.2073 8.7369 21.7935 8.7369 22.5052V22.5147C8.7369 23.2262 9.31446 23.8006 10.0229 23.8006H18.4998C19.2082 23.8006 19.7858 23.2209 19.7858 22.5092V22.5064C19.7858 21.7947 20.3568 21.207 21.0652 21.207H27.4787V29.2455C27.4787 29.3933 27.46 29.5367 27.4249 29.6739Z" fill="#C9D2DD"/>
<path fill-rule="evenodd" clip-rule="evenodd" d="M8.13985 6.90625H20.3823C20.5116 6.90625 20.6356 6.95671 20.727 7.04652C20.8184 7.13634 20.8697 7.25816 20.8697 7.38517V13.3614C20.8697 13.4885 20.8184 13.6103 20.727 13.7001C20.6356 13.7899 20.5116 13.8404 20.3823 13.8404H8.13985C8.01059 13.8404 7.88662 13.7899 7.79522 13.7001C7.70381 13.6103 7.65247 13.4885 7.65247 13.3614V7.38517C7.65247 7.25816 7.70381 7.13634 7.79522 7.04652C7.88662 6.95671 8.01059 6.90625 8.13985 6.90625ZM8.2037 16.4402H20.3185C20.4647 16.4402 20.6049 16.4973 20.7083 16.5989C20.8117 16.7004 20.8697 16.8382 20.8697 16.9819C20.8697 17.1255 20.8117 17.2633 20.7083 17.3649C20.6049 17.4665 20.4647 17.5235 20.3185 17.5235H8.2037C8.0575 17.5235 7.9173 17.4665 7.81392 17.3649C7.71054 17.2633 7.65247 17.1255 7.65247 16.9819C7.65247 16.8382 7.71054 16.7004 7.81392 16.5989C7.9173 16.4973 8.0575 16.4402 8.2037 16.4402ZM8.2037 19.257H20.3185C20.4647 19.257 20.605 19.3141 20.7084 19.4157C20.8118 19.5173 20.8699 19.6551 20.8699 19.7988C20.8699 19.9425 20.8118 20.0803 20.7084 20.1819C20.605 20.2835 20.4647 20.3406 20.3185 20.3406H8.2037C8.05747 20.3406 7.91723 20.2835 7.81383 20.1819C7.71043 20.0803 7.65234 19.9425 7.65234 19.7988C7.65234 19.6551 7.71043 19.5173 7.81383 19.4157C7.91723 19.3141 8.05747 19.257 8.2037 19.257Z" fill="#9CA3AF"/>
</g>
<g filter="url(#filter1_d_13827_30653)">
<path fill-rule="evenodd" clip-rule="evenodd" d="M23.9778 7.44172L22.6112 7.95106C22.5761 7.96417 22.5378 7.9675 22.5008 7.96066C22.4639 7.95382 22.4296 7.93709 22.4021 7.91239C22.3746 7.88769 22.3549 7.85603 22.3452 7.82105C22.3356 7.78607 22.3364 7.74919 22.3477 7.71465L22.7352 6.52166C22.2172 5.95582 21.9131 5.26582 21.9131 4.52123C21.9131 2.60018 23.9376 1.04297 26.435 1.04297C28.9319 1.04297 30.9566 2.60018 30.9566 4.52123C30.9566 6.44228 28.9321 7.99949 26.4348 7.99949C25.5288 7.99949 24.6853 7.7946 23.9778 7.44172Z" fill="#1890FF"/>
<path d="M28.085 4.93784C28.3962 4.93784 28.6486 4.68855 28.6486 4.38103C28.6486 4.07351 28.3962 3.82422 28.085 3.82422C27.7738 3.82422 27.5215 4.07351 27.5215 4.38103C27.5215 4.68855 27.7738 4.93784 28.085 4.93784Z" fill="white"/>
<path fill-rule="evenodd" clip-rule="evenodd" d="M25.1271 4.8689H24L24.5732 3.89453L25.1271 4.8689ZM25.8314 3.89453H26.8175V4.8689H25.8314V3.89453Z" fill="white"/>
</g>
</g>
<defs>
<filter id="filter0_d_13827_30653" x="-0.956055" y="2.52344" width="30.4346" height="30.4336" filterUnits="userSpaceOnUse" color-interpolation-filters="sRGB">
<feFlood flood-opacity="0" result="BackgroundImageFix"/>
<feColorMatrix in="SourceAlpha" type="matrix" values="0 0 0 0 0 0 0 0 0 0 0 0 0 0 0 0 0 0 127 0" result="hardAlpha"/>
<feOffset/>
<feGaussianBlur stdDeviation="1"/>
<feComposite in2="hardAlpha" operator="out"/>
<feColorMatrix type="matrix" values="0 0 0 0 0 0 0 0 0 0 0 0 0 0 0 0 0 0 0.12 0"/>
<feBlend mode="normal" in2="BackgroundImageFix" result="effect1_dropShadow_13827_30653"/>
<feBlend mode="normal" in="SourceGraphic" in2="effect1_dropShadow_13827_30653" result="shape"/>
</filter>
<filter id="filter1_d_13827_30653" x="17.9131" y="-0.957031" width="17.0439" height="14.957" filterUnits="userSpaceOnUse" color-interpolation-filters="sRGB">
<feFlood flood-opacity="0" result="BackgroundImageFix"/>
<feColorMatrix in="SourceAlpha" type="matrix" values="0 0 0 0 0 0 0 0 0 0 0 0 0 0 0 0 0 0 127 0" result="hardAlpha"/>
<feOffset dy="2"/>
<feGaussianBlur stdDeviation="2"/>
<feComposite in2="hardAlpha" operator="out"/>
<feColorMatrix type="matrix" values="0 0 0 0 0 0 0 0 0 0 0 0 0 0 0 0 0 0 0.1 0"/>
<feBlend mode="normal" in2="BackgroundImageFix" result="effect1_dropShadow_13827_30653"/>
<feBlend mode="normal" in="SourceGraphic" in2="effect1_dropShadow_13827_30653" result="shape"/>
</filter>
<clipPath id="clip0_13827_30653">
<rect width="32" height="32" fill="white"/>
</clipPath>
</defs>
</svg>

<svg xmlns="http://www.w3.org/2000/svg" width="32" height="32" fill="none"><g clip-path="url(#a)"><g fill-rule="evenodd" clip-rule="evenodd" filter="url(#b)"><path fill="#9CA3AF" d="m27.479 21.209-5.83-7.051a1.474 1.474 0 0 0-1.12-.533H7.993c-.43 0-.84.2-1.119.533l-5.83 7.05v3.684h26.435V21.21Z"/><path fill="#DCE3EC" d="M5.984 4.523h16.554c.259 0 .507.101.69.281a.95.95 0 0 1 .285.677v22.353a.95.95 0 0 1-.285.677.984.984 0 0 1-.69.28H5.985a.984.984 0 0 1-.69-.28.95.95 0 0 1-.285-.677V5.48a.95.95 0 0 1 .285-.677c.183-.18.431-.28.69-.28Z"/><path fill="#C9D2DD" d="M27.425 29.674a1.703 1.703 0 0 1-1.641 1.284H2.739a1.702 1.702 0 0 1-1.695-1.713v-8.038h6.413c.709 0 1.28.587 1.28 1.298v.01c0 .711.577 1.286 1.286 1.286H18.5a1.29 1.29 0 0 0 1.286-1.292v-.003c0-.711.57-1.299 1.28-1.299h6.413v8.038c0 .148-.019.292-.054.429Z"/><path fill="#9CA3AF" d="M8.14 6.906h12.242c.13 0 .254.05.345.14.091.09.143.212.143.34v5.975a.475.475 0 0 1-.143.34.492.492 0 0 1-.345.14H8.14a.492.492 0 0 1-.345-.14.475.475 0 0 1-.143-.34V7.385c0-.127.052-.249.143-.338a.492.492 0 0 1 .345-.14Zm.064 9.534h12.114c.147 0 .287.057.39.159a.537.537 0 0 1 0 .766.556.556 0 0 1-.39.159H8.204a.556.556 0 0 1-.39-.16.537.537 0 0 1 0-.765.556.556 0 0 1 .39-.159Zm0 2.817h12.114c.147 0 .287.057.39.159a.537.537 0 0 1 0 .766.556.556 0 0 1-.39.159H8.204a.556.556 0 0 1-.39-.16.537.537 0 0 1 0-.765.556.556 0 0 1 .39-.159Z"/></g><g filter="url(#c)"><path fill="#1890FF" fill-rule="evenodd" d="m23.978 7.442-1.367.51a.208.208 0 0 1-.209-.04.185.185 0 0 1-.054-.198l.387-1.192c-.518-.566-.822-1.256-.822-2 0-1.922 2.025-3.479 4.522-3.479 2.497 0 4.522 1.557 4.522 3.478C30.957 6.442 28.932 8 26.435 8a5.52 5.52 0 0 1-2.457-.557Z" clip-rule="evenodd"/><path fill="#fff" d="M28.085 4.938a.56.56 0 0 0 .564-.557.56.56 0 0 0-.564-.557.56.56 0 0 0-.564.557.56.56 0 0 0 .564.557Z"/><path fill="#fff" fill-rule="evenodd" d="M25.127 4.869H24l.573-.974.554.974Zm.704-.974h.986v.974h-.986v-.974Z" clip-rule="evenodd"/></g></g><defs><filter id="b" width="30.435" height="30.434" x="-.956" y="2.523" color-interpolation-filters="sRGB" filterUnits="userSpaceOnUse"><feFlood flood-opacity="0" result="BackgroundImageFix"/><feColorMatrix in="SourceAlpha" result="hardAlpha" values="0 0 0 0 0 0 0 0 0 0 0 0 0 0 0 0 0 0 127 0"/><feOffset/><feGaussianBlur stdDeviation="1"/><feComposite in2="hardAlpha" operator="out"/><feColorMatrix values="0 0 0 0 0 0 0 0 0 0 0 0 0 0 0 0 0 0 0.12 0"/><feBlend in2="BackgroundImageFix" result="effect1_dropShadow_13827_30653"/><feBlend in="SourceGraphic" in2="effect1_dropShadow_13827_30653" result="shape"/></filter><filter id="c" width="17.044" height="14.957" x="17.913" y="-.957" color-interpolation-filters="sRGB" filterUnits="userSpaceOnUse"><feFlood flood-opacity="0" result="BackgroundImageFix"/><feColorMatrix in="SourceAlpha" result="hardAlpha" values="0 0 0 0 0 0 0 0 0 0 0 0 0 0 0 0 0 0 127 0"/><feOffset dy="2"/><feGaussianBlur stdDeviation="2"/><feComposite in2="hardAlpha" operator="out"/><feColorMatrix values="0 0 0 0 0 0 0 0 0 0 0 0 0 0 0 0 0 0 0.1 0"/><feBlend in2="BackgroundImageFix" result="effect1_dropShadow_13827_30653"/><feBlend in="SourceGraphic" in2="effect1_dropShadow_13827_30653" result="shape"/></filter><clipPath id="a"><path fill="#fff" d="M0 0h32v32H0z"/></clipPath></defs></svg>
